X: 21393
T: REPUBLICAN SETT (tune 6)
C:
%R: reel
B: Elias Howe "The Musician's Companion" 1843 p.139 #3
S: http://imslp.org/wiki/The_Musician's_Companion_(Howe,_Elias)
Z: 2015 John Chambers <jc:trillian.mit.edu>
N: aka "Rickett's Hornpipe"
M: C
L: 1/8
K: D
% - - - - - - - - - - - - - - - - - - - - - - - - - - - - -
V: 1 name="6"
(3(ABc) |\
dcdA FAdf | edcB A2g2 | fgaf gfed | edcB | Agfe |\
dcdA FAdf | edcB A2g2 | fgaf bgec | d2d2 d2 H:|
fg |\
afaf d2ga | bgbg e2fg | afba gfed | edcB Agfe |\
dcdA FAdf | edcB A2g2 | fgaf bgec | d2d2 "^D.C."d2 :|
% - - - - - - - - - - Dance description - - - - - - - - - -
%%begintext align
%% Ladies all balance to the right,
%% all promenade,
%% gentlemen the same.
%%endtext
% - - - - - - - - - - - - - - - - - - - - - - - - - - - - -
%%sep 1 1 300

%%sep 1 1 500

